img/partners/c-bank.svg

<svg width="370" height="93" viewBox="0 0 370 93" fill="none" xmlns="http://www.w3.org/2000/svg">
<path d="M22.8031 60.8189C14.9868 60.8189 8.61915 54.5135 8.61915 46.7722C8.61915 39.0309 14.985 32.7236 22.7994 32.7236H23.6874V24.1807H22.8012C10.2342 24.1807 0 34.3195 0 46.7704C0 59.303 10.2342 69.4419 22.8031 69.4419H23.6892V60.8227H22.8031V60.8189Z" fill="#9AACDE"/>
<path fill-rule="evenodd" clip-rule="evenodd" d="M27.3946 36.3971V24.6631C37.8709 26.7374 45.6855 35.8376 45.6855 46.7724C45.6855 57.7907 37.8672 66.8873 27.3946 68.8853V57.1513H22.8008C17.001 57.1513 12.3281 52.5195 12.3281 46.776C12.3281 41.0289 17.001 36.3971 22.803 36.3971H27.3946ZM71.3895 56.9878C73.7647 56.9951 76.0678 56.1777 77.9141 54.6737L81.5401 58.2702C78.8816 60.6606 75.337 62.0992 71.3895 62.0992C62.8477 62.0992 55.9991 55.1533 55.9991 46.7724C55.9991 38.3915 62.8477 31.5255 71.3895 31.5255C75.2263 31.5146 78.9299 32.9386 81.7826 35.5179L78.1567 39.1071C76.2864 37.4542 73.8795 36.546 71.3895 36.5569C65.6656 36.5569 61.0754 41.1052 61.0754 46.7724C61.0754 52.4396 65.6674 56.9878 71.3895 56.9878ZM230.527 46.2928L241.887 32.7243H246.399V60.8205H241.887V40.5457L230.527 53.7946L219.005 40.2261V60.8241H214.411V32.7243H219.005V32.8841L219.084 32.7243L230.527 46.2928ZM100.556 62.0193C109.016 62.0193 115.947 55.2332 115.947 46.7724C115.947 38.3915 109.016 31.5255 100.556 31.5255C92.0963 31.5255 85.1683 38.3915 85.1683 46.7724C85.1683 55.1533 92.0168 62.0193 100.556 62.0193ZM100.477 36.5569C106.199 36.5569 110.79 41.1052 110.79 46.7724C110.79 52.4396 106.199 56.9878 100.477 56.9878C94.7547 56.9878 90.1632 52.4396 90.1632 46.7724C90.1632 41.1052 94.7547 36.5569 100.477 36.5569ZM194.348 62.0193C202.808 62.0193 209.738 55.2332 209.738 46.7724C209.738 38.3915 202.887 31.5255 194.348 31.5255C185.888 31.5255 178.958 38.3915 178.958 46.7724C178.958 55.1533 185.806 62.0193 194.348 62.0193ZM194.348 36.5569C200.07 36.5569 204.661 41.1052 204.661 46.7724C204.661 52.4396 199.987 56.9878 194.348 56.9878C188.626 56.9878 184.034 52.4396 184.034 46.7724C184.034 41.1052 188.626 36.5569 194.348 36.5569ZM172.671 32.7243H178.878L164.857 46.8523L178.715 60.8241H172.592L160.907 49.0865H156.236V60.8241H151.724V32.7243H156.236V44.5382H160.99L172.671 32.7243ZM363.88 32.7243H370L356.06 46.8523L369.839 60.8241H363.715L352.114 49.0865H347.359V60.8241H342.847V32.7243H347.359V44.5382H352.114L363.88 32.7243ZM308.282 60.8205H303.283L300.547 54.7573H285.88L283.142 60.8241H278.147L290.635 32.7243H295.79L308.282 60.8205ZM293.214 38.4714L287.897 50.2853H298.533L293.214 38.4714ZM143.343 46.7724C144.986 48.2909 145.922 50.4343 145.922 52.6793C145.922 57.1477 142.296 60.8241 137.782 60.904H121.186V32.7243H137.782C142.264 32.717 145.907 36.3607 145.922 40.8654C145.922 43.1795 144.873 45.2575 143.343 46.7724ZM137.703 37.2762H125.777V44.4546H137.703C139.717 44.4546 141.327 42.8598 141.327 40.8654C141.327 38.8674 139.717 37.2762 137.703 37.2762ZM125.777 56.3521H137.703C139.719 56.3521 141.329 54.6737 141.408 52.683C141.408 51.7348 141.013 50.8448 140.37 50.1872C139.714 49.5188 138.799 49.0901 137.782 49.0901H125.777V56.3521ZM332.615 44.5382V32.8042H337.208V60.7405H332.615V49.0828H316.098V60.7405H311.506V32.8042H316.098V44.5382H332.615ZM268.314 44.5382C272.827 44.5382 276.534 48.2073 276.534 52.6793C276.534 57.1477 272.829 60.8241 268.312 60.9004H251.796V32.7243H273.794V37.2726H256.389V44.5382H268.314ZM256.391 56.3521H268.316C270.331 56.3521 271.942 54.6737 271.942 52.683C271.942 50.7648 270.331 49.0901 268.316 49.0901H256.391V56.3521Z" fill="#253256"/>
</svg>

<svg width="370" height="93" fill="none" xmlns="http://www.w3.org/2000/svg"><path d="M22.803 60.819c-7.816 0-14.184-6.306-14.184-14.047 0-7.741 6.366-14.048 14.18-14.048h.888V24.18h-.886C10.234 24.18 0 34.319 0 46.77c0 12.532 10.234 22.67 22.803 22.67h.886v-8.618h-.886v-.004z" fill="#9AACDE"/><path fill-rule="evenodd" clip-rule="evenodd" d="M27.395 36.397V24.663c10.476 2.074 18.29 11.175 18.29 22.11 0 11.018-7.818 20.114-18.29 22.112V57.151H22.8c-5.8 0-10.473-4.632-10.473-10.375 0-5.747 4.673-10.379 10.475-10.379h4.592zm43.995 20.59c2.375.008 4.678-.81 6.524-2.313l3.626 3.596c-2.658 2.39-6.203 3.83-10.15 3.83C62.847 62.1 56 55.152 56 46.771c0-8.38 6.848-15.246 15.39-15.246a15.432 15.432 0 0110.393 3.992l-3.626 3.59a10.152 10.152 0 00-6.767-2.551c-5.724 0-10.315 4.548-10.315 10.215 0 5.668 4.592 10.216 10.314 10.216zm159.137-10.694l11.36-13.569h4.512v28.097h-4.512V40.546l-11.36 13.249-11.522-13.569v20.598h-4.594v-28.1h4.594v.16l.079-.16 11.443 13.569zM100.556 62.019c8.46 0 15.391-6.786 15.391-15.247 0-8.38-6.931-15.246-15.391-15.246s-15.388 6.866-15.388 15.246c0 8.381 6.849 15.247 15.388 15.247zm-.079-25.462c5.722 0 10.313 4.548 10.313 10.215 0 5.668-4.591 10.216-10.313 10.216S90.163 52.44 90.163 46.772c0-5.667 4.592-10.215 10.314-10.215zm93.871 25.462c8.46 0 15.39-6.786 15.39-15.247 0-8.38-6.851-15.246-15.39-15.246-8.46 0-15.39 6.866-15.39 15.246 0 8.381 6.848 15.247 15.39 15.247zm0-25.462c5.722 0 10.313 4.548 10.313 10.215 0 5.668-4.674 10.216-10.313 10.216-5.722 0-10.314-4.548-10.314-10.216 0-5.667 4.592-10.215 10.314-10.215zm-21.677-3.833h6.207l-14.021 14.128 13.858 13.972h-6.123l-11.685-11.737h-4.671v11.737h-4.512v-28.1h4.512v11.814h4.754l11.681-11.814zm191.209 0H370l-13.94 14.128 13.779 13.972h-6.124l-11.601-11.737h-4.755v11.737h-4.512v-28.1h4.512v11.814h4.755l11.766-11.814zm-55.598 28.097h-4.999l-2.736-6.064H285.88l-2.738 6.067h-4.995l12.488-28.1h5.155l12.492 28.097zm-15.068-22.35l-5.317 11.814h10.636l-5.319-11.814zm-149.871 8.301a8.045 8.045 0 012.579 5.907c0 4.469-3.626 8.145-8.14 8.225h-16.596v-28.18h16.596c4.482-.007 8.125 3.637 8.14 8.141 0 2.314-1.049 4.392-2.579 5.907zm-5.64-9.496h-11.926v7.179h11.926c2.014 0 3.624-1.595 3.624-3.59 0-1.998-1.61-3.589-3.624-3.589zm-11.926 19.076h11.926c2.016 0 3.626-1.678 3.705-3.669 0-.948-.395-1.838-1.038-2.496a3.623 3.623 0 00-2.588-1.097h-12.005v7.262zm206.838-11.814V32.804h4.593V60.74h-4.593V49.084h-16.517V60.74h-4.592V32.804h4.592v11.734h16.517zm-64.301 0c4.513 0 8.22 3.67 8.22 8.141 0 4.469-3.705 8.145-8.222 8.221h-16.516V32.724h21.998v4.549h-17.405v7.265h11.925zm-11.923 11.814h11.925c2.015 0 3.626-1.678 3.626-3.669 0-1.918-1.611-3.593-3.626-3.593h-11.925v7.262z" fill="#253256"/></svg>
